;FLAVOR:Marlin
;TIME:1873
;Filament used: 0.509923m
;Layer height: 0.2
;MINX:161.335
;MINY:162.335
;MINZ:0.2
;MAXX:188.665
;MAXY:187.665
;MAXZ:5
;Generated with Cura_SteamEngine 4.6.1
M140 S50
M105
M190 S50
M104 S210
M105
M109 S210
M82 ;absolute extrusion mode
M201 X500.00 Y500.00 Z100.00 E5000.00 ;Setup machine max acceleration
M203 X500.00 Y500.00 Z10.00 E50.00 ;Setup machine max feedrate
M204 P500.00 R1000.00 T500.00 ;Setup Print/Retract/Travel acceleration
M205 X8.00 Y8.00 Z0.40 E5.00 ;Setup Jerk
M220 S100 ;Reset Feedrate
M221 S100 ;Reset Flowrate

G28 ;Home
M420 S1 Z2 ;Enable ABL using saved Mesh and Fade Height

G92 E0 ;Reset Extruder
G1 Z2.0 F3000 ;Move Z Axis up
G1 X10.1 Y20 Z0.28 F5000.0 ;Move to start position
G1 X10.1 Y200.0 Z0.28 F1500.0 E15 ;Draw the first line
G1 X10.4 Y200.0 Z0.28 F5000.0 ;Move to side a little
G1 X10.4 Y20 Z0.28 F1500.0 E30 ;Draw the second line
G92 E0 ;Reset Extruder
G1 Z2.0 F3000 ;Move Z Axis up

G92 E0
G92 E0
G1 F1500 E-4.1
;LAYER_COUNT:25
;LAYER:0
M107
;MESH:Hinge.stl
G0 F6000 X164.857 Y181.525 Z0.2
;TYPE:WALL-INNER
G1 F1500 E0
G1 F600 X165.047 Y182.024 E0.01776
G1 X165.348 Y182.461 E0.03541
G1 X165.748 Y182.814 E0.05315
G1 X166.218 Y183.06 E0.0708
G1 X166.734 Y183.188 E0.08848
G1 X167.264 Y183.188 E0.10611
G1 X167.779 Y183.063 E0.12373
G1 X168.251 Y182.816 E0.14145
G1 X168.65 Y182.463 E0.15917
G1 X168.951 Y182.026 E0.17682
G1 X169.14 Y181.528 E0.19454
G1 X169.203 Y181.003 E0.21212
G1 X169.143 Y180.475 E0.2298
G1 X168.953 Y179.976 E0.24756
G1 X168.652 Y179.539 E0.2652
G1 X168.252 Y179.186 E0.28295
G1 X167.782 Y178.94 E0.30059
G1 X167.267 Y178.813 E0.31823
G1 X166.737 Y178.812 E0.33586
G1 X166.221 Y178.937 E0.35352
G1 X165.749 Y179.184 E0.37124
G1 X165.351 Y179.537 E0.38893
G1 X165.048 Y179.975 E0.40665
G1 X164.86 Y180.472 E0.42432
G1 X164.797 Y180.997 E0.44191
G1 X164.857 Y181.525 E0.45958
G0 F6000 X165.249 Y181.43
;TYPE:WALL-OUTER
G1 F600 X165.404 Y181.837 E0.47407
G1 X165.65 Y182.194 E0.48849
G1 X165.976 Y182.482 E0.50296
G1 X166.361 Y182.683 E0.5174
G1 X166.783 Y182.788 E0.53186
G1 X167.216 Y182.788 E0.54627
G1 X167.637 Y182.686 E0.56067
G1 X168.022 Y182.484 E0.57513
G1 X168.348 Y182.196 E0.5896
G1 X168.594 Y181.839 E0.60402
G1 X168.749 Y181.432 E0.61851
G1 X168.8 Y181.002 E0.63291
G1 X168.751 Y180.57 E0.64737
G1 X168.596 Y180.163 E0.66186
G1 X168.35 Y179.806 E0.67628
G1 X168.024 Y179.518 E0.69074
G1 X167.639 Y179.317 E0.70519
G1 X167.218 Y179.213 E0.71961
G1 X166.784 Y179.212 E0.73405
G1 X166.363 Y179.314 E0.74845
G1 X165.978 Y179.516 E0.76292
G1 X165.652 Y179.804 E0.77738
G1 X165.405 Y180.162 E0.79185
G1 X165.251 Y180.568 E0.80629
G1 X165.2 Y180.998 E0.82069
G1 X165.249 Y181.43 E0.83515
G0 F6000 X164.822 Y181.533
G1 F1500 E-3.26485
G0 F6000 X164.997 Y180.614
G0 X165.64 Y179.026
G0 X166.47 Y180.234
G0 X166.468 Y169.764
G0 X165.639 Y170.972
G0 X164.857 Y169.525
;TYPE:WALL-INNER
G1 F1500 E0.83515
G1 F600 X165.047 Y170.024 E0.85291
G1 X165.348 Y170.461 E0.87056
G1 X165.748 Y170.814 E0.88831
G1 X166.218 Y171.06 E0.90595
G1 X166.734 Y171.188 E0.92363
G1 X167.264 Y171.188 E0.94126
G1 X167.779 Y171.063 E0.95889
G1 X168.251 Y170.816 E0.97661
G1 X168.65 Y170.463 E0.99432
G1 X168.951 Y170.026 E1.01197
G1 X169.14 Y169.528 E1.02969
G1 X169.203 Y169.003 E1.04728
G1 X169.143 Y168.475 E1.06495
G1 X168.953 Y167.976 E1.08271
G1 X168.652 Y167.539 E1.10036
G1 X168.252 Y167.186 E1.1181
G1 X167.782 Y166.94 E1.13575
G1 X167.267 Y166.813 E1.15339
G1 X166.737 Y166.812 E1.17102
G1 X166.221 Y166.937 E1.18868
G1 X165.749 Y167.184 E1.20639
G1 X165.351 Y167.537 E1.22409
G1 X165.048 Y167.975 E1.2418
G1 X164.86 Y168.472 E1.25948
G1 X164.797 Y168.997 E1.27706
G1 X164.857 Y169.525 E1.29474
G0 F6000 X165.249 Y169.43
;TYPE:WALL-OUTER
G1 F600 X165.404 Y169.837 E1.30922
G1 X165.65 Y170.194 E1.32364
G1 X165.976 Y170.482 E1.33811
G1 X166.361 Y170.683 E1.35255
G1 X166.783 Y170.788 E1.36702
G1 X167.216 Y170.788 E1.38142
G1 X167.637 Y170.686 E1.39583
G1 X168.022 Y170.484 E1.41029
G1 X168.348 Y170.196 E1.42476
G1 X168.594 Y169.839 E1.43918
G1 X168.749 Y169.432 E1.45366
G1 X168.8 Y169.002 E1.46806
G1 X168.751 Y168.57 E1.48252
G1 X168.596 Y168.163 E1.49701
G1 X168.35 Y167.806 E1.51143
G1 X168.024 Y167.518 E1.5259
G1 X167.639 Y167.317 E1.54034
G1 X167.218 Y167.213 E1.55477
G1 X166.784 Y167.212 E1.5692
G1 X166.363 Y167.314 E1.58361
G1 X165.978 Y167.516 E1.59807
G1 X165.652 Y167.804 E1.61254
G1 X165.405 Y168.162 E1.627
G1 X165.251 Y168.568 E1.64145
G1 X165.2 Y168.998 E1.65585
G1 X165.249 Y169.43 E1.67031
G0 F6000 X164.822 Y169.533
G1 F1500 E-2.42969
G0 F6000 X165.47 Y170.354
G0 X165.84 Y170.68
G0 X166.276 Y170.908
G0 X166.754 Y171.027
G0 X167.15 Y171.027
G0 X168.794 Y170.59
G0 X167.697 Y169.618
G0 X176.339 Y173.939
G0 X174.893 Y173.968
G0 X175.075 Y174.15
;TYPE:WALL-INNER
G1 F1500 E1.67031
G1 F600 X174.876 Y174.15 E1.67693
G1 X171.4 Y174.15 E1.79254
G1 X171.4 Y181.592 E2.04006
G1 X175.074 Y181.599 E2.16226
G1 X175.075 Y185.951 E2.30701
G1 X175.075 Y186.15 E2.31363
G1 X174.876 Y186.15 E2.31791
G1 X171.4 Y186.15 E2.43352
G1 X171.4 Y186.399 E2.4418
G1 X162.799 Y186.4 E2.72787
G1 X162.6 Y186.4 E2.73449
G1 X162.6 Y186.201 E2.73877
G1 X162.6 Y163.6 E3.49049
G1 X171.39 Y163.6 E3.78284
G1 X171.401 Y169.592 E3.98214
G1 X175.074 Y169.599 E4.1043
G1 X175.075 Y173.951 E4.24905
G1 X175.075 Y174.15 E4.25333
G0 F6000 X175.475 Y174.55
;TYPE:WALL-OUTER
G1 F600 X171.8 Y174.55 E4.37556
G1 X171.8 Y181.193 E4.59651
G1 X175.474 Y181.2 E4.71871
G1 X175.475 Y186.55 E4.89665
G1 X171.8 Y186.55 E5.01888
G1 X171.8 Y186.799 E5.02716
G1 X162.2 Y186.8 E5.34646
G1 X162.2 Y163.2 E6.1314
G1 X171.789 Y163.2 E6.45033
G1 X171.8 Y169.193 E6.64966
G1 X175.474 Y169.2 E6.77186
G1 X175.475 Y174.55 E6.9498
G0 F6000 X175.205 Y174.28
G0 X174.965 Y173.76
G0 X174.685 Y173.76
;TYPE:SKIN
G1 F600 X171.01 Y173.76 E7.07203
G1 X171.01 Y181.982 E7.3455
G1 X174.684 Y181.989 E7.46769
G1 X174.685 Y185.76 E7.59312
G1 X171.01 Y185.76 E7.71535
G1 X171.01 Y186.009 E7.72363
G1 X162.99 Y186.01 E7.99038
G1 X162.99 Y163.99 E8.72276
G1 X171 Y163.99 E8.98918
G1 X171.011 Y169.982 E9.18847
G1 X174.684 Y169.989 E9.31064
G1 X174.685 Y173.76 E9.43606
G1 F1500 E5.33606
G0 F6000 X174.965 Y173.76
G0 X174.893 Y173.968
G0 X176.339 Y173.939
G0 X167.53 Y169.766
G0 X168.487 Y170.887
G0 X169.05 Y170.077
G0 X169.298 Y170.209
G1 F1500 E9.43606
G1 F600 X169.522 Y169.622 E9.45696
G1 X169.595 Y169.005 E9.47762
G1 X169.525 Y168.382 E9.49847
G1 X169.3 Y167.793 E9.51945
G1 X168.946 Y167.278 E9.54023
G1 X168.474 Y166.862 E9.56116
G1 X167.921 Y166.573 E9.58191
G1 X167.314 Y166.423 E9.60271
G1 X166.691 Y166.422 E9.62343
G1 X166.083 Y166.569 E9.64423
G1 X165.526 Y166.86 E9.66513
G1 X165.057 Y167.276 E9.68599
G1 X164.701 Y167.792 E9.70684
G1 X164.478 Y168.378 E9.72769
G1 X164.405 Y168.995 E9.74835
G1 X164.475 Y169.618 E9.76921
G1 X164.7 Y170.207 E9.79018
G1 X165.054 Y170.722 E9.81096
G1 X165.526 Y171.138 E9.83189
G1 X166.079 Y171.427 E9.85264
G1 X166.687 Y171.578 E9.87348
G1 X167.311 Y171.578 E9.89423
G1 X167.917 Y171.431 E9.91497
G1 X168.474 Y171.14 E9.93587
G1 X168.944 Y170.724 E9.95675
G1 X169.298 Y170.209 E9.97754
G1 F1500 E5.87754
G0 F6000 X169.05 Y170.077
G0 X168.36 Y170.974
G0 X167.53 Y169.766
G0 X167.33 Y180.131
G0 X167.85 Y178.76
G0 X168.735 Y179.465
G0 X168.946 Y179.278
G1 F1500 E9.97754
G1 F600 X168.474 Y178.862 E9.99846
G1 X167.921 Y178.573 E10.01921
G1 X167.314 Y178.423 E10.04001
G1 X166.691 Y178.422 E10.06073
G1 X166.083 Y178.569 E10.08154
G1 X165.526 Y178.86 E10.10244
G1 X165.057 Y179.276 E10.12329
G1 X164.701 Y179.792 E10.14414
G1 X164.478 Y180.378 E10.16499
G1 X164.405 Y180.995 E10.18566
G1 X164.475 Y181.618 E10.20651
G1 X164.7 Y182.207 E10.22748
G1 X165.054 Y182.722 E10.24827
G1 X165.526 Y183.138 E10.26919
G1 X166.079 Y183.427 E10.28995
G1 X166.687 Y183.578 E10.31078
G1 X167.311 Y183.578 E10.33154
G1 X167.917 Y183.431 E10.35228
G1 X168.474 Y183.14 E10.37318
G1 X168.944 Y182.724 E10.39405
G1 X169.298 Y182.209 E10.41484
G1 X169.522 Y181.622 E10.43574
G1 X169.595 Y181.005 E10.4564
G1 X169.525 Y180.382 E10.47725
G1 X169.3 Y179.793 E10.49822
G1 X168.946 Y179.278 E10.51901
G1 F1500 E6.41901
G0 F6000 X168.735 Y179.465
G0 X168.985 Y180.513
G0 X169.041 Y181.003
G0 X168.983 Y181.489
G0 X168.807 Y181.951
G0 X168.528 Y182.356
G0 X168.158 Y182.682
G0 X167.722 Y182.912
G0 X167.335 Y183.004
G0 X165.639 Y182.972
G0 X166.468 Y181.764
G0 X165.64 Y187.664
G0 X165.639 Y186.19
G0 X163.221 Y186.29
G0 X163.221 Y185.848
G1 F1500 E10.51901
G1 F600 X163.15 Y185.777 E10.52235
G0 F6000 X163.15 Y185.211
G1 F600 X163.787 Y185.848 E10.55231
G0 F6000 X164.352 Y185.848
G1 F600 X163.15 Y184.646 E10.60885
G0 F6000 X163.15 Y184.08
G1 F600 X164.918 Y185.848 E10.69201
G0 F6000 X165.484 Y185.848
G1 F600 X163.15 Y183.514 E10.80179
G0 F6000 X163.15 Y182.949
G1 F600 X166.049 Y185.848 E10.93815
G0 F6000 X166.615 Y185.848
G1 F600 X163.15 Y182.383 E11.10114
G0 F6000 X163.15 Y181.817
G1 F600 X167.18 Y185.848 E11.29072
G0 F6000 X167.746 Y185.848
G1 F600 X163.15 Y181.251 E11.50693
G0 F6000 X163.15 Y180.686
G1 F600 X164.441 Y181.978 E11.56767
G0 F6000 X164.272 Y181.243
G1 F600 X163.15 Y180.12 E11.62047
G0 F6000 X163.15 Y179.554
G1 F600 X164.281 Y180.686 E11.67369
G0 F6000 X164.37 Y180.209
G1 F600 X163.15 Y178.989 E11.73108
G0 F6000 X163.15 Y178.423
G1 F600 X164.526 Y179.799 E11.7958
G0 F6000 X164.741 Y179.449
G1 F600 X163.15 Y177.857 E11.87066
G0 F6000 X163.15 Y177.292
G1 F600 X164.982 Y179.124 E11.95683
G0 F6000 X165.283 Y178.859
G1 F600 X163.15 Y176.726 E12.05716
G0 F6000 X163.15 Y176.16
G1 F600 X165.618 Y178.629 E12.17327
G0 F6000 X165.989 Y178.434
G1 F600 X163.15 Y175.595 E12.30681
G0 F6000 X163.15 Y175.029
G1 F600 X166.438 Y178.317 E12.46147
G0 F6000 X166.947 Y178.261
G1 F600 X163.15 Y174.463 E12.64009
G0 F6000 X163.15 Y173.898
G1 F600 X167.573 Y178.321 E12.84814
G0 F6000 X167.468 Y178.748
G0 X168.319 Y179.096
G0 X168.524 Y178.706
G1 F600 X163.15 Y173.332 E13.10091
G0 F6000 X163.15 Y172.766
G1 F600 X170.85 Y180.467 E13.46312
G0 F6000 X170.85 Y181.032
G1 F600 X169.238 Y179.421 E13.53892
G0 F6000 X168.876 Y179.669
G0 X169.255 Y180.487
G0 X169.691 Y180.439
G1 F600 X170.85 Y181.598 E13.59344
G0 F6000 X171.394 Y182.142
G1 F600 X174.524 Y185.272 E13.74066
G0 F6000 X174.285 Y185.599
G1 F600 X169.748 Y181.061 E13.95409
G0 F6000 X169.688 Y181.568
G1 F600 X173.719 Y185.599 E14.1437
G0 F6000 X173.154 Y185.599
G1 F600 X169.55 Y181.995 E14.31322
G0 F6000 X169.371 Y182.382
G1 F600 X172.588 Y185.599 E14.46454
G0 F6000 X172.022 Y185.599
G1 F600 X169.141 Y182.717 E14.60007
G0 F6000 X168.865 Y183.007
G1 F600 X171.457 Y185.599 E14.72199
G0 F6000 X170.891 Y185.599
G1 F600 X168.565 Y183.272 E14.83143
G0 F6000 X168.193 Y183.467
G1 F600 X170.574 Y185.848 E14.94342
G0 F6000 X170.008 Y185.848
G1 F600 X167.787 Y183.627 E15.04789
G0 F6000 X167.332 Y183.737
G1 F600 X169.443 Y185.848 E15.14718
G0 F6000 X168.877 Y185.848
G1 F600 X166.766 Y183.737 E15.24648
G0 F6000 X166.046 Y183.582
G1 F600 X168.311 Y185.848 E15.35304
G0 F6000 X168.311 Y186.29
G0 X171.218 Y186.217
G0 X174.893 Y185.968
G0 X174.892 Y181.781
G0 X171.962 Y181.704
G0 X171.961 Y182.143
G1 F600 X174.524 Y184.706 E15.4736
G0 F6000 X174.524 Y184.141
G1 F600 X172.528 Y182.145 E15.56748
G0 F6000 X173.094 Y182.145
G1 F600 X174.524 Y183.575 E15.63475
G0 F6000 X174.524 Y183.009
G1 F600 X173.661 Y182.146 E15.67534
G0 F6000 X174.228 Y182.147
G1 F600 X174.524 Y182.444 E15.68928
G0 F6000 X174.965 Y182.444
G0 X174.892 Y181.781
G0 X171.572 Y181.421
G0 X171.29 Y179.901
G0 X170.85 Y179.901
G1 F600 X163.15 Y172.201 E16.05147
G0 F6000 X163.15 Y171.635
G1 F600 X170.85 Y179.335 E16.41365
G0 F6000 X170.85 Y178.77
G1 F600 X163.15 Y171.069 E16.77586
G0 F6000 X163.15 Y170.503
G1 F600 X170.85 Y178.204 E17.13807
G0 F6000 X170.85 Y177.638
G1 F600 X163.15 Y169.938 E17.50025
G0 F6000 X163.15 Y169.372
G1 F600 X170.85 Y177.072 E17.86244
G0 F6000 X170.85 Y176.507
G1 F600 X165.808 Y171.465 E18.0996
G0 F6000 X166.638 Y171.73
G1 F600 X170.85 Y175.941 E18.29769
G0 F6000 X170.85 Y175.375
G1 F600 X167.211 Y171.737 E18.46884
G0 F6000 X167.691 Y171.65
G1 F600 X170.85 Y174.81 E18.61745
G0 F6000 X170.85 Y174.244
G1 F600 X168.114 Y171.508 E18.74614
G0 F6000 X168.486 Y171.315
G1 F600 X170.85 Y173.678 E18.85732
G0 F6000 X171.336 Y173.598
G1 F600 X168.801 Y171.063 E18.97656
G0 F6000 X169.091 Y170.788
G1 F600 X171.901 Y173.598 E19.10873
G0 F6000 X172.467 Y173.598
G1 F600 X169.323 Y170.454 E19.25661
G0 F6000 X169.517 Y170.083
G1 F600 X173.033 Y173.598 E19.42197
G0 F6000 X173.598 Y173.598
G1 F600 X169.673 Y169.673 E19.60659
G0 F6000 X169.734 Y169.168
G1 F600 X174.164 Y173.598 E19.81497
G0 F6000 X174.524 Y173.393
G1 F600 X171.274 Y170.143 E19.96784
G0 F6000 X171.841 Y170.144
G1 F600 X174.524 Y172.827 E20.09404
G0 F6000 X174.524 Y172.261
G1 F600 X172.408 Y170.145 E20.19357
G0 F6000 X172.974 Y170.146
G1 F600 X174.523 Y171.695 E20.26643
G0 F6000 X174.523 Y171.129
G1 F600 X173.541 Y170.147 E20.31262
G0 F6000 X174.108 Y170.148
G1 F600 X174.523 Y170.564 E20.33216
G0 F6000 X174.965 Y170.564
G0 X174.892 Y169.781
G0 X171.291 Y169.718
G0 X170.849 Y169.718
G1 F600 X169.706 Y168.574 E20.38595
G0 F6000 X169.459 Y167.762
G1 F600 X170.849 Y169.151 E20.4513
G0 F6000 X170.847 Y168.584
G1 F600 X166.412 Y164.149 E20.65991
G0 F6000 X165.846 Y164.149
G1 F600 X168.274 Y166.577 E20.77412
G0 F6000 X167.413 Y166.282
G1 F600 X165.281 Y164.149 E20.87442
G0 F6000 X164.715 Y164.149
G1 F600 X166.827 Y166.262 E20.97379
G0 F6000 X166.34 Y166.34
G1 F600 X164.149 Y164.149 E21.07685
G0 F6000 X163.584 Y164.149
G1 F600 X165.91 Y166.476 E21.18628
G0 F6000 X165.539 Y166.67
G1 F600 X163.15 Y164.281 E21.29865
G0 F6000 X163.15 Y164.847
G1 F600 X165.219 Y166.916 E21.39597
G0 F6000 X164.924 Y167.186
G1 F600 X163.15 Y165.412 E21.47941
G0 F6000 X163.15 Y165.978
G1 F600 X164.692 Y167.521 E21.55197
G0 F6000 X164.493 Y167.887
G1 F600 X163.15 Y166.544 E21.61514
G0 F6000 X163.15 Y167.109
G1 F600 X164.337 Y168.297 E21.671
G0 F6000 X164.269 Y168.794
G1 F600 X163.15 Y167.675 E21.72363
G0 F6000 X163.15 Y168.241
G1 F600 X164.287 Y169.378 E21.77711
G0 F6000 X164.515 Y170.172
G1 F600 X163.15 Y168.806 E21.84134
G0 F6000 X162.71 Y168.806
G0 X162.782 Y163.782
G0 X166.978 Y163.71
G0 X166.978 Y164.149
G1 F600 X170.846 Y168.018 E22.0233
G0 F6000 X170.845 Y167.451
G1 F600 X167.544 Y164.149 E22.17859
G0 F6000 X168.109 Y164.149
G1 F600 X170.844 Y166.884 E22.30724
G0 F6000 X170.843 Y166.317
G1 F600 X168.675 Y164.149 E22.40922
G0 F6000 X169.241 Y164.149
G1 F600 X170.842 Y165.751 E22.48455
G0 F6000 X170.841 Y165.184
G1 F600 X169.806 Y164.149 E22.53323
G0 F6000 X170.372 Y164.149
G1 F600 X170.84 Y164.617 E22.55524
G0 F6000 X171.191 Y164.616
G1 F1500 E18.45524
G0 F6000 X171.282 Y164.617
G0 X171.586 Y169.407
G0 X172.652 Y168.341
G0 X182.071 Y169.003
G0 X180.606 Y168.996
G0 X180.857 Y169.525
;TYPE:WALL-INNER
G1 F1500 E22.55524
G1 F600 X181.047 Y170.024 E22.573
G1 X181.348 Y170.461 E22.59065
G1 X181.748 Y170.814 E22.60839
G1 X182.218 Y171.06 E22.62604
G1 X182.734 Y171.188 E22.64372
G1 X183.264 Y171.188 E22.66135
G1 X183.779 Y171.063 E22.67898
G1 X184.251 Y170.816 E22.69669
G1 X184.65 Y170.463 E22.71441
G1 X184.951 Y170.026 E22.73206
G1 X185.14 Y169.528 E22.74978
G1 X185.203 Y169.003 E22.76736
G1 X185.143 Y168.475 E22.78504
G1 X184.953 Y167.976 E22.8028
G1 X184.652 Y167.539 E22.82045
G1 X184.252 Y167.186 E22.83819
G1 X183.782 Y166.94 E22.85584
G1 X183.267 Y166.813 E22.87348
G1 X182.737 Y166.812 E22.89111
G1 X182.221 Y166.937 E22.90876
G1 X181.749 Y167.184 E22.92648
G1 X181.351 Y167.537 E22.94418
G1 X181.048 Y167.975 E22.96189
G1 X180.86 Y168.472 E22.97956
G1 X180.797 Y168.997 E22.99715
G1 X180.857 Y169.525 E23.01482
G0 F6000 X181.249 Y169.43
;TYPE:WALL-OUTER
G1 F600 X181.404 Y169.837 E23.02931
G1 X181.65 Y170.194 E23.04373
G1 X181.976 Y170.482 E23.0582
G1 X182.361 Y170.683 E23.07264
G1 X182.783 Y170.788 E23.08711
G1 X183.216 Y170.788 E23.10151
G1 X183.637 Y170.686 E23.11592
G1 X184.022 Y170.484 E23.13038
G1 X184.348 Y170.196 E23.14484
G1 X184.594 Y169.839 E23.15926
G1 X184.749 Y169.432 E23.17375
G1 X184.8 Y169.002 E23.18815
G1 X184.751 Y168.57 E23.20261
G1 X184.596 Y168.163 E23.2171
