;FLAVOR:Marlin
;TIME:2851
;Filament used: 0.782869m
;Layer height: 0.2
;MINX:139.307
;MINY:169.307
;MINZ:0.2
;MAXX:166.665
;MAXY:200.665
;MAXZ:5
;Generated with Cura_SteamEngine 4.6.1
M140 S50
M105
M190 S50
M104 S210
M105
M109 S210
M82 ;absolute extrusion mode
M201 X500.00 Y500.00 Z100.00 E5000.00 ;Setup machine max acceleration
M203 X500.00 Y500.00 Z10.00 E50.00 ;Setup machine max feedrate
M204 P500.00 R1000.00 T500.00 ;Setup Print/Retract/Travel acceleration
M205 X8.00 Y8.00 Z0.40 E5.00 ;Setup Jerk
M220 S100 ;Reset Feedrate
M221 S100 ;Reset Flowrate

G28 ;Home
M420 S1 Z2 ;Enable ABL using saved Mesh and Fade Height

G92 E0 ;Reset Extruder
G1 Z2.0 F3000 ;Move Z Axis up
G1 X10.1 Y20 Z0.28 F5000.0 ;Move to start position
G1 X10.1 Y200.0 Z0.28 F1500.0 E15 ;Draw the first line
G1 X10.4 Y200.0 Z0.28 F5000.0 ;Move to side a little
G1 X10.4 Y20 Z0.28 F1500.0 E30 ;Draw the second line
G92 E0 ;Reset Extruder
G1 Z2.0 F3000 ;Move Z Axis up

G92 E0
G92 E0
G1 F1500 E-4.1
;LAYER_COUNT:25
;LAYER:0
M107
G0 F6000 X143.772 Y173.772 Z0.2
;TYPE:SKIRT
G1 F1500 E0
G1 F600 X146.172 Y173.772 E0.07982
G1 X146.172 Y196.172 E0.82485
G1 X143.772 Y196.172 E0.90468
G1 X143.772 Y173.772 E1.6497
G0 F6000 X143.372 Y173.372
G1 F600 X146.572 Y173.372 E1.75614
G1 X146.572 Y196.572 E2.52777
G1 X143.372 Y196.572 E2.6342
G1 X143.372 Y173.372 E3.40584
G0 F6000 X142.972 Y172.972
G1 F600 X146.972 Y172.972 E3.53888
G1 X146.972 Y196.972 E4.33712
G1 X142.972 Y196.972 E4.47016
G1 X142.972 Y172.972 E5.26841
G0 F6000 X142.572 Y172.572
G1 F600 X147.372 Y172.572 E5.42805
G1 X147.372 Y197.372 E6.25291
G1 X142.572 Y197.372 E6.41255
G1 X142.572 Y172.572 E7.23741
G0 F6000 X142.172 Y172.172
G1 F600 X147.772 Y172.172 E7.42366
G1 X147.772 Y197.772 E8.27512
G1 X142.172 Y197.772 E8.46138
G1 X142.172 Y172.172 E9.31284
G0 F6000 X141.772 Y171.772
G1 F600 X148.172 Y171.772 E9.5257
G1 X148.172 Y198.172 E10.40377
G1 X141.772 Y198.172 E10.61664
G1 X141.772 Y171.772 E11.4947
G0 F6000 X141.372 Y171.372
G1 F600 X148.572 Y171.372 E11.73418
G1 X148.572 Y198.572 E12.63885
G1 X141.372 Y198.572 E12.87832
G1 X141.372 Y171.372 E13.783
G0 F6000 X140.972 Y170.972
G1 F600 X148.972 Y170.972 E14.04908
G1 X148.972 Y198.972 E14.98036
G1 X140.972 Y198.972 E15.24645
G1 X140.972 Y170.972 E16.17773
G0 F6000 X140.572 Y170.572
G1 F600 X149.372 Y170.572 E16.47042
G1 X149.372 Y199.372 E17.42831
G1 X140.572 Y199.372 E17.721
G1 X140.572 Y170.572 E18.67889
G0 F6000 X140.172 Y170.172
G1 F600 X149.772 Y170.172 E18.99819
G1 X149.772 Y199.772 E19.98269
G1 X140.172 Y199.772 E20.30199
G1 X140.172 Y170.172 E21.28649
G1 F1500 E17.18649
G0 F6000 X151.658 Y169.347
G0 X154.323 Y169.347
G0 X156.142 Y170.2
G1 F1500 E21.28649
G1 F600 X165.742 Y170.2 E21.60578
G1 X165.742 Y199.8 E22.59028
G1 X156.142 Y199.8 E22.90958
G1 X156.142 Y170.2 E23.89408
G0 F6000 X156.542 Y170.6
G1 F600 X165.342 Y170.6 E24.18677
G1 X165.342 Y199.4 E25.14466
G1 X156.542 Y199.4 E25.43735
G1 X156.542 Y170.6 E26.39524
G0 F6000 X156.942 Y171
G1 F600 X164.942 Y171 E26.66132
G1 X164.942 Y199 E27.59261
G1 X156.942 Y199 E27.85869
G1 X156.942 Y171 E28.78997
G0 F6000 X157.342 Y171.4
G1 F600 X164.542 Y171.4 E29.02945
G1 X164.542 Y198.6 E29.93412
G1 X157.342 Y198.6 E30.17359
G1 X157.342 Y171.4 E31.07827
G0 F6000 X157.742 Y171.8
G1 F600 X164.142 Y171.8 E31.29114
G1 X164.142 Y198.2 E32.1692
G1 X157.742 Y198.2 E32.38207
G1 X157.742 Y171.8 E33.26014
G0 F6000 X158.142 Y172.2
G1 F600 X163.742 Y172.2 E33.44639
G1 X163.742 Y197.8 E34.29785
G1 X158.142 Y197.8 E34.48411
G1 X158.142 Y172.2 E35.33557
G0 F6000 X158.542 Y172.6
G1 F600 X163.342 Y172.6 E35.49522
G1 X163.342 Y197.4 E36.32007
G1 X158.542 Y197.4 E36.47972
G1 X158.542 Y172.6 E37.30457
G0 F6000 X158.942 Y173
G1 F600 X162.942 Y173 E37.43761
G1 X162.942 Y197 E38.23585
G1 X158.942 Y197 E38.36889
G1 X158.942 Y173 E39.16714
G0 F6000 X159.342 Y173.4
G1 F600 X162.542 Y173.4 E39.27357
G1 X162.542 Y196.6 E40.0452
G1 X159.342 Y196.6 E40.15164
G1 X159.342 Y173.4 E40.92327
G0 F6000 X159.742 Y173.8
G1 F600 X162.142 Y173.8 E41.00309
G1 X162.142 Y196.2 E41.74812
G1 X159.742 Y196.2 E41.82795
G1 X159.742 Y173.8 E42.57297
G0 F6000 X160.142 Y174.2
;TYPE:SUPPORT
G1 F600 X161.742 Y174.2 E42.62619
G1 X161.742 Y195.8 E43.34461
G1 X160.142 Y195.8 E43.39782
G1 X160.142 Y174.2 E44.11624
G0 F6000 X160.542 Y174.6
G1 F600 X161.342 Y174.6 E44.14285
G1 X161.342 Y195.4 E44.83466
G1 X160.542 Y195.4 E44.86127
G1 X160.542 Y174.6 E45.55308
G0 F6000 X160.622 Y176
G1 F600 X161.262 Y176 E45.57437
G0 F6000 X161.262 Y178
G1 F600 X160.622 Y178 E45.59565
G0 F6000 X160.622 Y180
G1 F600 X161.262 Y180 E45.61694
G0 F6000 X161.262 Y182
G1 F600 X160.622 Y182 E45.63823
G0 F6000 X160.622 Y184
G1 F600 X161.262 Y184 E45.65951
G0 F6000 X161.262 Y186
G1 F600 X160.622 Y186 E45.6808
G0 F6000 X160.622 Y188
G1 F600 X161.262 Y188 E45.70209
G0 F6000 X161.262 Y190
G1 F600 X160.622 Y190 E45.72337
G0 F6000 X160.622 Y192
G1 F600 X161.262 Y192 E45.74466
G0 F6000 X161.262 Y194
G1 F600 X160.622 Y194 E45.76595
G1 F1500 E41.66595
G0 F6000 X159.277 Y194
G0 X154.324 Y200.403
G0 X151.659 Y200.403
G0 X146.637 Y195.772
G0 X145.772 Y195.772
G1 F1500 E45.76595
G1 F600 X144.172 Y195.772 E45.81916
G1 X144.172 Y174.172 E46.53758
G1 X145.772 Y174.172 E46.5908
G1 X145.772 Y195.772 E47.30922
G0 F6000 X145.372 Y195.372
G1 F600 X144.572 Y195.372 E47.33582
G1 X144.572 Y174.572 E48.02764
G1 X145.372 Y174.572 E48.05424
G1 X145.372 Y195.372 E48.74605
G0 F6000 X145.292 Y194
G1 F600 X144.652 Y194 E48.76734
G0 F6000 X144.652 Y192
G1 F600 X145.292 Y192 E48.78863
G0 F6000 X145.292 Y190
G1 F600 X144.652 Y190 E48.80991
G0 F6000 X144.652 Y188
G1 F600 X145.292 Y188 E48.8312
G0 F6000 X145.292 Y186
G1 F600 X144.652 Y186 E48.85249
G0 F6000 X144.652 Y184
G1 F600 X145.292 Y184 E48.87377
G0 F6000 X145.292 Y182
G1 F600 X144.652 Y182 E48.89506
G0 F6000 X144.652 Y180
G1 F600 X145.292 Y180 E48.91635
G0 F6000 X145.292 Y178
G1 F600 X144.652 Y178 E48.93763
G0 F6000 X144.652 Y176
G1 F600 X145.292 Y176 E48.95892
G1 F1500 E44.85892
;MESH:Hinge_30mmC.stl
G0 F6000 X146.637 Y176
G0 X151.665 Y176.414
G0 X152.744 Y176.414
G0 X152.93 Y181.15
;TYPE:WALL-INNER
G1 F1500 E48.95892
G1 F600 X152.93 Y176.6 E49.11025
G1 X153.088 Y176.6 E49.11551
G1 X153.088 Y181.15 E49.17543
G1 X152.93 Y181.15 E49.18069
G0 F6000 X152.53 Y181.55
;TYPE:WALL-OUTER
G1 F600 X152.53 Y176.2 E49.35863
G1 X153.488 Y176.2 E49.39049
G1 X153.488 Y181.55 E49.56844
G1 X152.53 Y181.55 E49.6003
G0 F6000 X152.888 Y181.068
G1 F1500 E45.5003
G0 F6000 X152.911 Y181.33
G0 X152.911 Y182.42
G0 X152.911 Y182.6
;TYPE:WALL-INNER
G1 F1500 E49.6003
G1 F600 X153.07 Y182.6 E49.60559
G1 X153.07 Y183.221 E49.62624
G1 X153.071 Y187.15 E49.75692
G1 X152.912 Y187.15 E49.76221
G1 X152.912 Y183.222 E49.81393
G1 X152.911 Y182.6 E49.82216
G0 F6000 X152.511 Y182.2
;TYPE:WALL-OUTER
G1 F600 X153.47 Y182.2 E49.85406
G1 X153.471 Y187.55 E50.032
G1 X152.512 Y187.55 E50.0639
G1 X152.512 Y183.222 E50.20785
G1 X152.511 Y182.2 E50.24184
G0 F6000 X152.87 Y182.681
G1 F1500 E46.14184
G0 F6000 X152.93 Y187.33
G0 X152.93 Y188.42
G0 X152.93 Y193.15
;TYPE:WALL-INNER
G1 F1500 E50.24184
G1 F600 X152.93 Y188.6 E50.39317
G1 X153.088 Y188.6 E50.39843
G1 X153.088 Y193.15 E50.45835
G1 X152.93 Y193.15 E50.46361
G0 F6000 X152.53 Y193.55
;TYPE:WALL-OUTER
G1 F600 X152.53 Y188.2 E50.64155
G1 X153.488 Y188.2 E50.67341
G1 X153.488 Y193.55 E50.85136
G1 X152.53 Y193.55 E50.88322
G0 F6000 X152.888 Y193.068
G1 F1500 E46.78322
G0 F6000 X152.911 Y193.33
G0 X152.911 Y194.42
G0 X152.911 Y194.6
;TYPE:WALL-INNER
G1 F1500 E50.88322
G1 F600 X153.07 Y194.6 E50.88851
G1 X153.07 Y195.221 E50.90916
G1 X153.071 Y199.15 E51.03984
G1 X152.912 Y199.15 E51.04513
G1 X152.912 Y195.222 E51.09685
G1 X152.911 Y194.6 E51.10508
G0 F6000 X152.511 Y194.2
;TYPE:WALL-OUTER
G1 F600 X153.47 Y194.2 E51.13698
G1 X153.471 Y199.55 E51.31492
G1 X152.512 Y199.55 E51.34682
G1 X152.512 Y195.222 E51.49077
G1 X152.511 Y194.2 E51.52476
G0 F6000 X152.87 Y194.681
G1 F1500 E47.42476
G0 F6000 X152.911 Y194.42
G0 X151.647 Y194.421
G0 X151.647 Y175.331
G0 X152.911 Y175.33
G0 X152.911 Y170.6
;TYPE:WALL-INNER
G1 F1500 E51.52476
G1 F600 X153.07 Y170.6 E51.53005
G1 X153.071 Y175.15 E51.68138
G1 X152.912 Y175.15 E51.68667
G1 X152.911 Y170.6 E51.7468
G0 F6000 X152.511 Y170.2
;TYPE:WALL-OUTER
G1 F600 X153.47 Y170.2 E51.7787
G1 X153.471 Y175.55 E51.95664
G1 X152.512 Y175.55 E51.98854
G1 X152.511 Y170.2 E52.16648
G0 F6000 X152.87 Y170.681
G1 F1500 E48.06648
;MESH:NONMESH
G0 F300 X152.87 Y170.681 Z0.4
G0 F6000 X152.725 Y170.414
G0 X151.647 Y170.415
G0 X140.172 Y170.172
;TIME_ELAPSED:172.879986
;LAYER:1
M140 S50
M106 S85
;TYPE:SUPPORT
G1 F1500 E52.16648
G1 F600 X149.772 Y170.172 E52.48578
G1 X149.772 Y199.772 E53.47028
G1 X140.172 Y199.772 E53.78958
G1 X140.172 Y170.172 E54.77408
G1 F1500 E50.67408
G0 F7500 X140.172 Y169.307
G0 X149.492 Y169.307
G0 X149.492 Y170.452
G1 F1500 E54.77408
G1 F600 X148 Y170.452 E54.8237
G1 X148 Y199.492 E55.78957
G1 X146 Y199.492 E55.85609
G1 X146 Y170.452 E56.82197
G1 X144 Y170.452 E56.88849
G1 X144 Y199.492 E57.85436
G1 X142 Y199.492 E57.92088
G1 X140.452 Y199.492 E57.97237
G1 X140.452 Y170.452 E58.93824
G1 X142 Y170.452 E58.98973
G1 X142 Y199.492 E59.95561
G1 F1500 E55.85561
G0 F7500 X142 Y200.637
G0 X148 Y200.637
G0 X148 Y199.492
G1 F1500 E59.95561
G1 F600 X149.492 Y199.492 E60.00523
G1 X149.492 Y170.452 E60.9711
G1 F1500 E56.8711
G0 F7500 X150.637 Y170.452
G0 X151.162 Y169.347
G0 X154.849 Y169.347
G0 X155.277 Y170.2
G0 X156.142 Y170.2
G1 F1500 E60.9711
G1 F600 X165.742 Y170.2 E61.2904
G1 X165.742 Y199.8 E62.2749
G1 X156.142 Y199.8 E62.5942
G1 X156.142 Y170.2 E63.5787
G1 F1500 E59.4787
G0 F7500 X156.142 Y169.335
G0 X165.462 Y169.335
G0 X165.462 Y170.48
G1 F1500 E63.5787
G1 F600 X164 Y170.48 E63.62732
G1 X164 Y199.52 E64.5932
G1 X162 Y199.52 E64.65972
G1 X162 Y170.48 E65.62559
G1 X160 Y170.48 E65.69211
G1 X160 Y199.52 E66.65799
G1 X158 Y199.52 E66.72451
G1 X156.422 Y199.52 E66.77699
G1 X156.422 Y170.48 E67.74287
G1 X158 Y170.48 E67.79535
G1 X158 Y199.52 E68.76123
G1 F1500 E64.66123
G0 F7500 X158 Y200.665
G0 X164 Y200.665
G0 X164 Y199.52
G1 F1500 E68.76123
G1 F600 X165.462 Y199.52 E68.80985
G1 X165.462 Y170.48 E69.77573
G1 F1500 E65.67573
;MESH:Hinge_30mmC.stl
G0 F7500 X165.462 Y169.335
G0 X155.289 Y169.347
G0 X154.861 Y170.481
G0 X153.796 Y170.482
G0 X152.415 Y170.6
;TYPE:WALL-INNER
G1 F1500 E69.77573
G1 F600 X152.614 Y170.6 E69.78235
G1 X153.596 Y170.6 E69.81501
G1 X153.597 Y174.951 E69.95972
G1 X153.597 Y175.15 E69.96634
G1 X153.398 Y175.15 E69.97062
G1 X152.416 Y175.15 E70.00328
G1 X152.415 Y170.799 E70.148
G1 X152.415 Y170.6 E70.15228
G0 F7500 X152.015 Y170.2
;TYPE:WALL-OUTER
G1 F600 X153.996 Y170.2 E70.21817
G1 X153.997 Y175.55 E70.39611
G1 X152.016 Y175.55 E70.462
G1 X152.015 Y170.2 E70.63994
G0 F7500 X152.285 Y170.47
G0 X152.805 Y170.71
G0 X152.805 Y170.99
;TYPE:SKIN
G1 F600 X153.206 Y170.99 E70.65328
G1 X153.207 Y174.76 E70.77867
G1 X152.806 Y174.76 E70.79201
G1 X152.805 Y170.99 E70.9174
G0 F7500 X153.046 Y171.657
G1 F600 X152.965 Y171.737 E70.92118
G0 F7500 X153.046 Y172.222
G1 F600 X152.965 Y172.303 E70.92499
G0 F7500 X153.046 Y172.788
G1 F600 X152.965 Y172.869 E70.9288
G0 F7500 X153.046 Y173.354
G1 F600 X152.966 Y173.434 E70.93257
G0 F7500 X153.046 Y173.919
G1 F600 X152.966 Y173.999 E70.93633
G0 F7500 X153.046 Y174.485
G1 F600 X152.966 Y174.565 E70.94009
G0 F7500 X152.616 Y174.566
G1 F1500 E66.84009
G0 F7500 X152.525 Y174.565
G0 X152.404 Y175.33
G0 X152.404 Y176.42
G0 X152.404 Y181.15
;TYPE:WALL-INNER
G1 F1500 E70.94009
G1 F600 X152.404 Y176.6 E71.09143
G1 X153.584 Y176.6 E71.13067
G1 X153.584 Y181.15 E71.28201
G1 X152.404 Y181.15 E71.32125
G0 F7500 X152.004 Y181.55
;TYPE:WALL-OUTER
G1 F600 X152.004 Y176.2 E71.4992
G1 X153.984 Y176.2 E71.56505
G1 X153.984 Y181.55 E71.74299
G1 X152.004 Y181.55 E71.80885
G0 F7500 X152.274 Y181.28
G0 X152.514 Y180.76
G0 X152.794 Y180.76
;TYPE:SKIN
G1 F600 X152.794 Y176.99 E71.93424
G1 X153.194 Y176.99 E71.94754
G1 X153.194 Y180.76 E72.07293
G1 X152.794 Y180.76 E72.08624
G0 F7500 X152.604 Y180.76
G1 F1500 E67.98624
G0 F7500 X152.514 Y180.76
G0 X152.415 Y181.33
G0 X152.415 Y182.42
G0 X152.415 Y182.6
;TYPE:WALL-INNER
G1 F1500 E72.08624
G1 F600 X152.614 Y182.6 E72.09286
G1 X153.596 Y182.6 E72.12552
G1 X153.597 Y186.951 E72.27023
G1 X153.597 Y187.15 E72.27685
G1 X153.398 Y187.15 E72.28113
G1 X152.416 Y187.15 E72.3138
G1 X152.416 Y184.197 E72.41201
G1 X152.415 Y182.799 E72.45851
G1 X152.415 Y182.6 E72.46279
G0 F7500 X152.015 Y182.2
;TYPE:WALL-OUTER
G1 F600 X153.996 Y182.2 E72.52868
G1 X153.997 Y187.55 E72.70662
G1 X152.016 Y187.55 E72.77251
G1 X152.016 Y184.197 E72.88403
G1 X152.015 Y182.2 E72.95045
G0 F7500 X152.285 Y182.47
G0 X152.805 Y182.71
G0 X152.805 Y182.99
;TYPE:SKIN
G1 F600 X153.206 Y182.99 E72.96379
G1 X153.207 Y186.76 E73.08918
G1 X152.806 Y186.76 E73.10252
G1 X152.806 Y184.197 E73.18776
G1 X152.805 Y182.99 E73.22791
G0 F7500 X153.046 Y183.536
G1 F600 X152.965 Y183.617 E73.23172
G0 F7500 X153.046 Y184.102
G1 F600 X152.966 Y184.182 E73.23548
G0 F7500 X153.046 Y184.668
G1 F600 X152.966 Y184.747 E73.23922
G0 F7500 X153.046 Y185.233
G1 F600 X152.966 Y185.313 E73.24298
G0 F7500 X153.046 Y185.799
G1 F600 X152.966 Y185.879 E73.24675
G0 F7500 X153.046 Y186.365
G1 F600 X152.966 Y186.444 E73.25049
G0 F7500 X152.616 Y186.444
G1 F1500 E69.15049
G0 F7500 X152.526 Y186.444
G0 X152.404 Y187.33
G0 X152.404 Y188.42
G0 X152.404 Y193.15
;TYPE:WALL-INNER
G1 F1500 E73.25049
G1 F600 X152.404 Y188.6 E73.40182
G1 X153.584 Y188.6 E73.44107
G1 X153.584 Y193.15 E73.5924
G1 X152.404 Y193.15 E73.63165
G0 F7500 X152.004 Y193.55
;TYPE:WALL-OUTER
G1 F600 X152.004 Y188.2 E73.80959
G1 X153.984 Y188.2 E73.87544
G1 X153.984 Y193.55 E74.05339
G1 X152.004 Y193.55 E74.11924
G0 F7500 X152.274 Y193.28
G0 X152.514 Y192.76
G0 X152.794 Y192.76
;TYPE:SKIN
G1 F600 X152.794 Y188.99 E74.24463
G1 X153.194 Y188.99 E74.25794
G1 X153.194 Y192.76 E74.38333
G1 X152.794 Y192.76 E74.39663
G0 F7500 X152.604 Y192.76
G1 F1500 E70.29663
G0 F7500 X152.514 Y192.76
G0 X152.415 Y193.33
G0 X152.415 Y194.42
G0 X152.415 Y194.6
;TYPE:WALL-INNER
G1 F1500 E74.39663
G1 F600 X152.614 Y194.6 E74.40325
G1 X153.596 Y194.6 E74.43591
G1 X153.597 Y198.951 E74.58063
G1 X153.597 Y199.15 E74.58724
G1 X153.398 Y199.15 E74.59153
G1 X152.416 Y199.15 E74.62419
G1 X152.416 Y196.197 E74.72241
G1 X152.415 Y194.799 E74.7689
G1 X152.415 Y194.6 E74.77319
G0 F7500 X152.015 Y194.2
;TYPE:WALL-OUTER
G1 F600 X153.996 Y194.2 E74.83907
G1 X153.997 Y199.55 E75.01702
G1 X152.016 Y199.55 E75.0829
G1 X152.016 Y196.197 E75.19443
G1 X152.015 Y194.2 E75.26085
G0 F7500 X152.285 Y194.47
G0 X152.805 Y194.71
G0 X152.805 Y194.99
;TYPE:SKIN
G1 F600 X153.206 Y194.99 E75.27418
G1 X153.207 Y198.76 E75.39957
G1 X152.806 Y198.76 E75.41291
G1 X152.806 Y196.197 E75.49816
G1 X152.805 Y194.99 E75.5383
G0 F7500 X153.045 Y195.416
G1 F600 X152.965 Y195.496 E75.54206
G0 F7500 X153.045 Y195.982
G1 F600 X152.966 Y196.061 E75.54578
G0 F7500 X153.045 Y196.548
G1 F600 X152.966 Y196.627 E75.5495
G0 F7500 X153.046 Y197.113
G1 F600 X152.966 Y197.192 E75.55324
G0 F7500 X153.046 Y197.678
G1 F600 X152.966 Y197.758 E75.557
G0 F7500 X153.046 Y198.244
G1 F600 X152.966 Y198.324 E75.56076
G0 F7500 X152.616 Y198.324
G1 F1500 E71.46076
;MESH:NONMESH
G0 F300 X152.616 Y198.324 Z0.6
G0 F7500 X152.526 Y198.324
G0 X152.236 Y196.197
G0 X151.151 Y196.197
G0 X150.625 Y169.319
G0 X139.319 Y169.319
G0 X139.307 Y170.172
G0 X140.172 Y170.172
;TIME_ELAPSED:253.522526
;LAYER:2
M106 S170
;TYPE:SUPPORT
G1 F1500 E75.56076
G1 F600 X149.772 Y170.172 E75.88006
G1 X149.772 Y199.772 E76.86456
G1 X140.172 Y199.772 E77.18386
G1 X140.172 Y170.172 E78.16836
G1 F1500 E74.06836
G0 F9000 X140.172 Y169.307
G0 X149.492 Y169.307
G0 X149.492 Y170.452
G1 F1500 E78.16836
G1 F600 X148 Y170.452 E78.21798
G1 X148 Y199.492 E79.18385
G1 X146 Y199.492 E79.25038
G1 X146 Y170.452 E80.21625
G1 X144 Y170.452 E80.28277
G1 X144 Y199.492 E81.24864
G1 X142 Y199.492 E81.31516
G1 X140.452 Y199.492 E81.36665
G1 X140.452 Y170.452 E82.33253
G1 X142 Y170.452 E82.38401
G1 X142 Y199.492 E83.34989
G1 F1500 E79.24989
G0 F9000 X142 Y200.637
G0 X148 Y200.637
G0 X148 Y199.492
