;FLAVOR:Marlin
;TIME:1420
;Filament used: 0.384302m
;Layer height: 0.2
;MINX:161.335
;MINY:165.335
;MINZ:0.2
;MAXX:187.8
;MAXY:184.665
;MAXZ:5
;Generated with Cura_SteamEngine 4.6.1
M140 S50
M105
M190 S50
M104 S210
M105
M109 S210
M82 ;absolute extrusion mode
M201 X500.00 Y500.00 Z100.00 E5000.00 ;Setup machine max acceleration
M203 X500.00 Y500.00 Z10.00 E50.00 ;Setup machine max feedrate
M204 P500.00 R1000.00 T500.00 ;Setup Print/Retract/Travel acceleration
M205 X8.00 Y8.00 Z0.40 E5.00 ;Setup Jerk
M220 S100 ;Reset Feedrate
M221 S100 ;Reset Flowrate

G28 ;Home
M420 S1 Z2 ;Enable ABL using saved Mesh and Fade Height

G92 E0 ;Reset Extruder
G1 Z2.0 F3000 ;Move Z Axis up
G1 X10.1 Y20 Z0.28 F5000.0 ;Move to start position
G1 X10.1 Y200.0 Z0.28 F1500.0 E15 ;Draw the first line
G1 X10.4 Y200.0 Z0.28 F5000.0 ;Move to side a little
G1 X10.4 Y20 Z0.28 F1500.0 E30 ;Draw the second line
G92 E0 ;Reset Extruder
G1 Z2.0 F3000 ;Move Z Axis up

G92 E0
G92 E0
G1 F1500 E-4.1
;LAYER_COUNT:25
;LAYER:0
M107
;MESH:Hinge_18mm.stl
G0 F6000 X181.427 Y178.601 Z0.2
;TYPE:WALL-INNER
G1 F1500 E0
G1 F600 X181.139 Y179.02 E0.01691
G1 X180.958 Y179.493 E0.03376
G1 X180.897 Y179.997 E0.05064
G1 X180.956 Y180.502 E0.06755
G1 X181.135 Y180.975 E0.08437
G1 X181.424 Y181.396 E0.10136
G1 X181.806 Y181.732 E0.11828
G1 X182.254 Y181.968 E0.13512
G1 X182.744 Y182.088 E0.1519
G1 X183.253 Y182.089 E0.16883
G1 X183.744 Y181.969 E0.18564
G1 X184.192 Y181.733 E0.20248
G1 X184.573 Y181.399 E0.21933
G1 X184.861 Y180.98 E0.23624
G1 X185.042 Y180.507 E0.25309
G1 X185.103 Y180.004 E0.26994
G1 X185.045 Y179.5 E0.28681
G1 X184.865 Y179.026 E0.30368
G1 X184.578 Y178.606 E0.3206
G1 X184.198 Y178.271 E0.33745
G1 X183.749 Y178.033 E0.35435
G1 X183.256 Y177.912 E0.37123
G1 X182.747 Y177.911 E0.38816
G1 X182.256 Y178.031 E0.40497
G1 X181.808 Y178.267 E0.42181
G1 X181.427 Y178.601 E0.43867
G0 F6000 X181.728 Y178.869
;TYPE:WALL-OUTER
G1 F600 X181.496 Y179.207 E0.4523
G1 X181.349 Y179.59 E0.46595
G1 X181.3 Y179.998 E0.47961
G1 X181.348 Y180.407 E0.49331
G1 X181.492 Y180.788 E0.50686
G1 X181.726 Y181.129 E0.52061
G1 X182.034 Y181.4 E0.53426
G1 X182.397 Y181.591 E0.5479
G1 X182.793 Y181.688 E0.56146
G1 X183.205 Y181.689 E0.57516
G1 X183.601 Y181.592 E0.58872
G1 X183.964 Y181.401 E0.60237
G1 X184.272 Y181.131 E0.61599
G1 X184.504 Y180.793 E0.62963
G1 X184.651 Y180.41 E0.64327
G1 X184.7 Y180.003 E0.6569
G1 X184.653 Y179.595 E0.67056
G1 X184.508 Y179.212 E0.68419
G1 X184.276 Y178.873 E0.69785
G1 X183.969 Y178.602 E0.71147
G1 X183.606 Y178.41 E0.72513
G1 X183.207 Y178.312 E0.73879
G1 X182.795 Y178.311 E0.7525
G1 X182.399 Y178.408 E0.76606
G1 X182.036 Y178.599 E0.7797
G1 X181.728 Y178.869 E0.79332
G0 F6000 X181.4 Y178.577
G1 F1500 E-3.30668
G0 F6000 X181.699 Y178.109
G0 X182.528 Y179.316
G0 X182.526 Y170.683
G0 X181.697 Y171.89
G0 X181.114 Y170.464
G0 X181.059 Y169.998
G0 X181.09 Y169.735
G0 X181.427 Y168.601
;TYPE:WALL-INNER
G1 F1500 E0.79332
G1 F600 X181.139 Y169.02 E0.81023
G1 X180.958 Y169.493 E0.82708
G1 X180.897 Y169.997 E0.84396
G1 X180.956 Y170.502 E0.86087
G1 X181.135 Y170.975 E0.87769
G1 X181.424 Y171.396 E0.89468
G1 X181.806 Y171.732 E0.9116
G1 X182.254 Y171.968 E0.92844
G1 X182.744 Y172.088 E0.94522
G1 X183.253 Y172.089 E0.96215
G1 X183.744 Y171.969 E0.97896
G1 X184.192 Y171.733 E0.9958
G1 X184.573 Y171.399 E1.01265
G1 X184.861 Y170.98 E1.02956
G1 X185.042 Y170.507 E1.04641
G1 X185.103 Y170.004 E1.06326
G1 X185.045 Y169.5 E1.08013
G1 X184.865 Y169.026 E1.097
G1 X184.578 Y168.606 E1.11392
G1 X184.198 Y168.271 E1.13077
G1 X183.749 Y168.033 E1.14767
G1 X183.256 Y167.912 E1.16455
G1 X182.747 Y167.911 E1.18148
G1 X182.256 Y168.031 E1.19829
G1 X181.808 Y168.267 E1.21514
G1 X181.427 Y168.601 E1.23199
G0 F6000 X181.728 Y168.869
;TYPE:WALL-OUTER
G1 F600 X181.496 Y169.207 E1.24562
G1 X181.349 Y169.59 E1.25927
G1 X181.3 Y169.998 E1.27293
G1 X181.348 Y170.407 E1.28663
G1 X181.492 Y170.788 E1.30018
G1 X181.726 Y171.129 E1.31393
G1 X182.034 Y171.4 E1.32758
G1 X182.397 Y171.591 E1.34122
G1 X182.793 Y171.688 E1.35478
G1 X183.205 Y171.689 E1.36849
G1 X183.601 Y171.592 E1.38205
G1 X183.964 Y171.401 E1.39569
G1 X184.272 Y171.131 E1.40931
G1 X184.504 Y170.793 E1.42295
G1 X184.651 Y170.41 E1.43659
G1 X184.7 Y170.003 E1.45023
G1 X184.653 Y169.595 E1.46389
G1 X184.508 Y169.212 E1.47751
G1 X184.276 Y168.873 E1.49117
G1 X183.969 Y168.602 E1.50479
G1 X183.606 Y168.41 E1.51845
G1 X183.207 Y168.312 E1.53211
G1 X182.795 Y168.311 E1.54582
G1 X182.399 Y168.408 E1.55938
G1 X182.036 Y168.599 E1.57302
G1 X181.728 Y168.869 E1.58664
G0 F6000 X181.4 Y168.577
G1 F1500 E-2.51336
G0 F6000 X180.969 Y168.931
G0 X180.969 Y166.81
G0 X174.926 Y166.6
;TYPE:WALL-INNER
G1 F1500 E1.58664
G1 F600 X175.125 Y166.6 E1.59326
G1 X187.4 Y166.6 E2.00153
G1 X187.4 Y183.4 E2.5603
G1 X174.927 Y183.4 E2.97515
G1 X174.927 Y179.85 E3.09323
G1 X178.6 Y179.85 E3.21539
G1 X178.6 Y170.15 E3.53801
G1 X174.927 Y170.15 E3.66018
G1 X174.926 Y166.799 E3.77163
G1 X174.926 Y166.6 E3.77592
G0 F6000 X174.526 Y166.2
;TYPE:WALL-OUTER
G1 F600 X187.8 Y166.2 E4.21741
G1 X187.8 Y183.8 E4.80279
G1 X174.527 Y183.8 E5.24425
G1 X174.527 Y179.45 E5.38893
G1 X178.2 Y179.45 E5.5111
G1 X178.2 Y170.55 E5.80711
G1 X174.527 Y170.55 E5.92928
G1 X174.526 Y166.2 E6.07396
G0 F6000 X174.796 Y166.47
G0 X175.316 Y166.71
G0 X175.316 Y166.99
;TYPE:SKIN
G1 F600 X187.01 Y166.99 E6.4629
G1 X187.01 Y183.01 E6.99573
G1 X175.317 Y183.01 E7.38464
G1 X175.317 Y180.24 E7.47677
G1 X178.99 Y180.24 E7.59894
G1 X178.99 Y169.76 E7.9475
G1 X175.317 Y169.76 E8.06967
G1 X175.316 Y166.99 E8.1618
G1 F1500 E4.0618
G0 F6000 X175.316 Y166.71
G0 X181.04 Y166.81
G0 X181.699 Y168.109
G0 X181.04 Y168.969
G0 X180.792 Y168.837
G1 F1500 E8.1618
G1 F600 X180.576 Y169.399 E8.18182
G1 X180.505 Y169.997 E8.20185
G1 X180.574 Y170.595 E8.22187
G1 X180.786 Y171.157 E8.24185
G1 X181.13 Y171.657 E8.26204
G1 X181.584 Y172.056 E8.28214
G1 X182.115 Y172.335 E8.30209
G1 X182.697 Y172.478 E8.32202
G1 X183.3 Y172.479 E8.34208
G1 X183.883 Y172.336 E8.36204
G1 X184.414 Y172.057 E8.382
G1 X184.867 Y171.66 E8.40203
G1 X185.208 Y171.163 E8.42208
G1 X185.424 Y170.602 E8.44207
G1 X185.495 Y170.006 E8.46203
G1 X185.427 Y169.407 E8.48208
G1 X185.214 Y168.844 E8.50211
G1 X184.872 Y168.346 E8.5222
G1 X184.422 Y167.948 E8.54218
G1 X183.889 Y167.666 E8.56224
G1 X183.303 Y167.522 E8.58231
G1 X182.7 Y167.521 E8.60236
G1 X182.117 Y167.664 E8.62233
G1 X181.586 Y167.943 E8.64228
G1 X181.133 Y168.34 E8.66231
G1 X180.792 Y168.837 E8.68236
G1 F1500 E4.58236
G0 F6000 X181.04 Y168.969
G0 X181.114 Y170.464
G0 X181.697 Y171.89
G0 X182.526 Y170.683
G0 X182.896 Y179.175
G0 X182.724 Y177.72
G0 X181.744 Y178.176
G0 X181.586 Y177.943
G1 F1500 E8.68236
G1 F600 X181.133 Y178.34 E8.70239
G1 X180.792 Y178.837 E8.72244
G1 X180.576 Y179.399 E8.74247
G1 X180.505 Y179.997 E8.76249
G1 X180.574 Y180.595 E8.78252
G1 X180.786 Y181.157 E8.80249
G1 X181.13 Y181.657 E8.82268
G1 X181.584 Y182.056 E8.84278
G1 X182.115 Y182.335 E8.86273
G1 X182.697 Y182.478 E8.88267
G1 X183.3 Y182.479 E8.90272
G1 X183.883 Y182.336 E8.92269
G1 X184.414 Y182.057 E8.94264
G1 X184.867 Y181.66 E8.96267
G1 X185.208 Y181.163 E8.98272
G1 X185.424 Y180.602 E9.00271
G1 X185.495 Y180.006 E9.02268
G1 X185.427 Y179.407 E9.04273
G1 X185.214 Y178.844 E9.06275
G1 X184.872 Y178.346 E9.08284
G1 X184.422 Y177.948 E9.10282
G1 X183.889 Y177.666 E9.12288
G1 X183.303 Y177.522 E9.14295
G1 X182.7 Y177.521 E9.16301
G1 X182.117 Y177.664 E9.18297
G1 X181.586 Y177.943 E9.20292
G1 F1500 E5.10292
G0 F6000 X181.744 Y178.176
G0 X181.235 Y179.274
G0 X180.769 Y180.548
G0 X180.769 Y183.19
G0 X176.061 Y183.29
G0 X176.061 Y182.849
G1 F1500 E9.20292
G1 F600 X175.477 Y182.265 E9.23039
G0 F6000 X175.477 Y181.699
G1 F600 X176.626 Y182.849 E9.28446
G0 F6000 X177.192 Y182.849
G1 F600 X175.477 Y181.133 E9.36515
G0 F6000 X175.477 Y180.568
G1 F600 X177.758 Y182.849 E9.47244
G0 F6000 X178.323 Y182.849
G1 F600 X175.874 Y180.399 E9.58766
G0 F6000 X176.44 Y180.399
G1 F600 X178.889 Y182.849 E9.70288
G0 F6000 X179.455 Y182.849
G1 F600 X177.005 Y180.399 E9.81812
G0 F6000 X177.571 Y180.399
G1 F600 X180.02 Y182.849 E9.93333
G0 F6000 X180.586 Y182.849
G1 F600 X178.137 Y180.399 E10.04855
G0 F6000 X178.702 Y180.399
G1 F600 X181.152 Y182.849 E10.16379
G0 F6000 X181.717 Y182.849
G1 F600 X179.149 Y180.281 E10.28458
G0 F6000 X179.149 Y179.715
G1 F600 X180.628 Y181.193 E10.35413
G0 F6000 X180.39 Y180.39
G1 F600 X179.149 Y179.149 E10.4125
G0 F6000 X179.149 Y178.584
G1 F600 X180.368 Y179.802 E10.46981
G0 F6000 X180.438 Y179.307
G1 F600 X179.149 Y178.018 E10.53044
G0 F6000 X179.149 Y177.452
G1 F600 X180.595 Y178.898 E10.59846
G0 F6000 X180.802 Y178.539
G1 F600 X179.149 Y176.887 E10.67619
G0 F6000 X179.149 Y176.321
G1 F600 X181.037 Y178.209 E10.76499
G0 F6000 X181.338 Y177.944
G1 F600 X179.149 Y175.755 E10.86796
G0 F6000 X179.149 Y175.189
G1 F600 X181.674 Y177.715 E10.98675
G0 F6000 X182.045 Y177.519
G1 F600 X179.149 Y174.623 E11.12297
G0 F6000 X179.149 Y174.057
G1 F600 X182.497 Y177.406 E11.28047
G0 F6000 X183.018 Y177.361
G1 F600 X179.149 Y173.492 E11.46246
G0 F6000 X179.149 Y172.926
G1 F600 X183.67 Y177.447 E11.67511
G0 F6000 X183.565 Y177.874
G0 X183.817 Y178.112
G0 X185.154 Y179.473
G0 X185.578 Y179.356
G1 F600 X186.849 Y180.626 E11.73487
G0 F6000 X186.849 Y180.061
G1 F600 X179.149 Y172.36 E12.09708
G0 F6000 X179.149 Y171.795
G1 F600 X186.849 Y179.495 E12.45926
G0 F6000 X186.849 Y178.929
G1 F600 X179.149 Y171.229 E12.82145
G0 F6000 X179.149 Y170.663
G1 F600 X186.849 Y178.364 E13.18366
G0 F6000 X186.849 Y177.798
G1 F600 X179.149 Y170.098 E13.54584
G0 F6000 X178.651 Y169.6
G1 F600 X176.201 Y167.15 E13.66108
G0 F6000 X176.766 Y167.15
G1 F600 X180.516 Y170.899 E13.83745
G0 F6000 X180.365 Y170.183
G1 F600 X177.332 Y167.15 E13.98011
G0 F6000 X177.898 Y167.15
G1 F600 X180.386 Y169.638 E14.09714
G0 F6000 X180.489 Y169.175
G1 F600 X178.463 Y167.15 E14.19241
G0 F6000 X179.029 Y167.15
G1 F600 X180.646 Y168.767 E14.26847
G0 F6000 X180.876 Y168.431
G1 F600 X179.595 Y167.15 E14.32872
G0 F6000 X180.16 Y167.15
G1 F600 X181.134 Y168.123 E14.37451
G0 F6000 X181.435 Y167.859
G1 F600 X180.726 Y167.15 E14.40786
G0 F6000 X181.292 Y167.15
G1 F600 X181.794 Y167.652 E14.43148
G0 F6000 X182.189 Y167.481
G1 F600 X181.857 Y167.15 E14.44707
G0 F6000 X182.423 Y167.15
G1 F600 X182.643 Y167.37 E14.45742
G0 F6000 X182.989 Y167.15
G1 F600 X183.2 Y167.361 E14.46734
G0 F6000 X183.555 Y167.15
G1 F600 X183.911 Y167.506 E14.48409
G0 F6000 X184.12 Y167.15
G1 F600 X186.849 Y169.878 E14.61243
G0 F6000 X186.849 Y169.313
G1 F600 X184.686 Y167.15 E14.71417
G0 F6000 X185.252 Y167.15
G1 F600 X186.849 Y168.747 E14.78929
G0 F6000 X186.849 Y168.181
G1 F600 X185.817 Y167.15 E14.8378
G0 F6000 X186.383 Y167.15
G1 F600 X186.849 Y167.616 E14.85972
G1 F1500 E10.75972
G0 F6000 X187.29 Y167.616
G0 X187.19 Y169.217
G0 X185.232 Y169.454
G0 X185.056 Y169.217
G0 X185.467 Y169.062
G1 F1500 E14.85972
G1 F600 X186.849 Y170.444 E14.92473
G0 F6000 X186.849 Y171.01
G1 F600 X185.629 Y169.79 E14.98211
G0 F6000 X185.614 Y170.341
G1 F600 X186.849 Y171.575 E15.04018
G0 F6000 X186.849 Y172.141
G1 F600 X185.515 Y170.808 E15.10291
G0 F6000 X185.358 Y171.216
G1 F600 X186.849 Y172.707 E15.17304
G0 F6000 X186.849 Y173.272
G1 F600 X185.131 Y171.554 E15.25385
G0 F6000 X184.875 Y171.865
G1 F600 X186.849 Y173.838 E15.34667
G0 F6000 X186.849 Y174.404
G1 F600 X184.574 Y172.129 E15.45368
G0 F6000 X184.219 Y172.34
G1 F600 X186.849 Y174.97 E15.57739
G0 F6000 X186.849 Y175.535
G1 F600 X183.827 Y172.514 E15.71951
G0 F6000 X183.373 Y172.625
G1 F600 X186.849 Y176.101 E15.88301
G0 F6000 X186.849 Y176.667
G1 F600 X182.821 Y172.638 E16.0725
G0 F6000 X182.116 Y172.5
G1 F600 X186.849 Y177.232 E16.2951
G1 F1500 E12.1951
G0 F6000 X187.29 Y177.232
G0 X187.19 Y180.004
G0 X185.294 Y180.005
G0 X185.213 Y180.004
G0 X185.653 Y179.996
G1 F1500 E16.2951
G1 F600 X186.849 Y181.192 E16.35136
G0 F6000 X186.849 Y181.758
G1 F600 X185.595 Y180.504 E16.41034
G0 F6000 X185.464 Y180.939
G1 F600 X186.849 Y182.323 E16.47547
G0 F6000 X186.809 Y182.849
G1 F600 X185.287 Y181.327 E16.54706
G0 F6000 X185.056 Y181.662
G1 F600 X186.243 Y182.849 E16.60289
G0 F6000 X185.677 Y182.849
G1 F600 X184.779 Y181.95 E16.64515
G0 F6000 X184.471 Y182.208
G1 F600 X185.112 Y182.849 E16.6753
G0 F6000 X184.546 Y182.849
G1 F600 X184.1 Y182.403 E16.69628
G0 F6000 X183.681 Y182.55
G1 F600 X183.98 Y182.849 E16.71035
G0 F6000 X183.415 Y182.849
G1 F600 X183.204 Y182.638 E16.72027
G0 F6000 X182.849 Y182.849
G1 F600 X182.625 Y182.625 E16.73081
G0 F6000 X182.283 Y182.849
G1 F600 X181.765 Y182.331 E16.75517
G1 F1500 E12.65517
G0 F6000 X181.97 Y181.944
G0 X181.278 Y180.899
G0 X181.114 Y180.464
G0 X181.059 Y179.998
G0 X181.104 Y179.622
G0 X181.699 Y178.109
G0 X178.81 Y178.109
G0 X178.403 Y173.587
G0 X178.428 Y170.322
G0 X178.085 Y170.04
G0 X178.085 Y169.6
G1 F1500 E16.75517
G1 F600 X175.635 Y167.15 E16.87041
G0 F6000 X175.475 Y167.556
G1 F600 X177.519 Y169.6 E16.96656
G0 F6000 X176.954 Y169.6
G1 F600 X175.475 Y168.121 E17.03612
G0 F6000 X175.475 Y168.687
G1 F600 X176.388 Y169.6 E17.07907
G0 F6000 X175.822 Y169.6
G1 F600 X175.475 Y169.253 E17.09539
G0 F6000 X175.127 Y169.254
G1 F1500 E12.99539
G0 F6000 X175.036 Y169.253
G0 X174.727 Y168.599
G0 X173.662 Y168.6
G0 X167.738 Y169.617
G0 X169.035 Y168.937
G0 X167.692 Y168.185
G0 X167.235 Y168.073
G0 X166.767 Y168.072
G0 X166.511 Y168.134
G0 X165.427 Y168.601
;TYPE:WALL-INNER
G1 F1500 E17.09539
G1 F600 X165.139 Y169.02 E17.1123
G1 X164.958 Y169.493 E17.12914
G1 X164.897 Y169.997 E17.14603
G1 X164.956 Y170.502 E17.16294
G1 X165.135 Y170.975 E17.17976
G1 X165.424 Y171.396 E17.19675
G1 X165.806 Y171.732 E17.21367
G1 X166.254 Y171.968 E17.23051
G1 X166.744 Y172.088 E17.24729
G1 X167.253 Y172.089 E17.26422
G1 X167.744 Y171.969 E17.28103
G1 X168.192 Y171.733 E17.29787
G1 X168.573 Y171.399 E17.31472
G1 X168.861 Y170.98 E17.33163
G1 X169.042 Y170.507 E17.34848
G1 X169.103 Y170.004 E17.36533
G1 X169.045 Y169.5 E17.3822
G1 X168.865 Y169.026 E17.39907
G1 X168.578 Y168.606 E17.41599
G1 X168.198 Y168.271 E17.43284
G1 X167.749 Y168.033 E17.44974
G1 X167.256 Y167.912 E17.46662
G1 X166.747 Y167.911 E17.48355
G1 X166.256 Y168.031 E17.50036
G1 X165.808 Y168.267 E17.5172
G1 X165.427 Y168.601 E17.53406
G0 F6000 X165.728 Y168.869
;TYPE:WALL-OUTER
G1 F600 X165.496 Y169.207 E17.54769
G1 X165.349 Y169.59 E17.56134
G1 X165.3 Y169.998 E17.575
G1 X165.348 Y170.407 E17.5887
G1 X165.492 Y170.788 E17.60225
G1 X165.726 Y171.129 E17.616
G1 X166.034 Y171.4 E17.62965
G1 X166.397 Y171.591 E17.64329
G1 X166.793 Y171.688 E17.65685
G1 X167.205 Y171.689 E17.67055
G1 X167.601 Y171.592 E17.68411
G1 X167.964 Y171.401 E17.69776
G1 X168.272 Y171.131 E17.71138
G1 X168.504 Y170.793 E17.72502
G1 X168.651 Y170.41 E17.73866
G1 X168.7 Y170.003 E17.75229
G1 X168.653 Y169.595 E17.76595
G1 X168.508 Y169.212 E17.77958
G1 X168.276 Y168.873 E17.79324
G1 X167.969 Y168.602 E17.80686
G1 X167.606 Y168.41 E17.82052
G1 X167.207 Y168.312 E17.83418
G1 X166.795 Y168.311 E17.84788
G1 X166.399 Y168.408 E17.86145
G1 X166.036 Y168.599 E17.87509
G1 X165.728 Y168.869 E17.88871
G0 F6000 X165.4 Y168.577
G1 F1500 E13.78871
G0 F6000 X165.115 Y169.533
G0 X165.059 Y169.998
G0 X165.103 Y170.375
G0 X165.697 Y171.89
G0 X166.526 Y170.683
G0 X166.528 Y179.316
G0 X165.699 Y178.109
G0 X165.427 Y178.601
;TYPE:WALL-INNER
G1 F1500 E17.88871
G1 F600 X165.139 Y179.02 E17.90562
G1 X164.958 Y179.493 E17.92247
G1 X164.897 Y179.997 E17.93935
G1 X164.956 Y180.502 E17.95626
G1 X165.135 Y180.975 E17.97308
G1 X165.424 Y181.396 E17.99007
G1 X165.806 Y181.732 E18.00699
G1 X166.254 Y181.968 E18.02383
G1 X166.744 Y182.088 E18.04061
G1 X167.253 Y182.089 E18.05754
G1 X167.744 Y181.969 E18.07435
G1 X168.192 Y181.733 E18.09119
G1 X168.573 Y181.399 E18.10804
G1 X168.861 Y180.98 E18.12495
G1 X169.042 Y180.507 E18.1418
G1 X169.103 Y180.004 E18.15865
G1 X169.045 Y179.5 E18.17552
G1 X168.865 Y179.026 E18.19239
G1 X168.578 Y178.606 E18.20931
G1 X168.198 Y178.271 E18.22616
G1 X167.749 Y178.033 E18.24306
G1 X167.256 Y177.912 E18.25994
G1 X166.747 Y177.911 E18.27687
G1 X166.256 Y178.031 E18.29368
G1 X165.808 Y178.267 E18.31052
